X:110
%%etbk:tnset id:39,pos:1,rep:3x,ant:
%%etbk:wsite http://www.thesession.org/tunes/display/1946
%%etbk:pldat 2016-07-21T18:42,2015-01-26T19:17,2015-01-20T17:17,2014-12-31T15:56,2014-12-03T18:13,2014-05-07T15:46,2014-05-05T19:32,2014-05-02T17:39,2014-04-02T17:19,2014-02-26T18:49,2014-02-14T16:36,2014-02-10T18:46,2014-02-09T13:23,2014-02-08T13:54,2013-11-26T16:53,2013-08-28T16:27,2013-05-22T17:02,2013-05-12T19:06,2013-05-05T13:48
T: Dairy Maid, The
Z: Piano Box Version by Martin Fleischmann
H: Created 2013-02-19 /  Last Modified 2013-02-19
M: 4/4
L: 1/8
R: reel
K: Dmaj
"D"!4!A!2!FFF !1!D!2!F!5!BF | !4!A!2!F!1!DE "A"!3!F!2!EE2 | "D"!4!A!2!FFF !5!B!2!F!4!A!3!F | "A"!2!EEDE "D"!3!F!1!DD2 |
"D"!4!A!2!FFF !1!D!2!F!5!BF | !4!A!2!F!1!DE "A"!3!F!2!EE2 | "G"!4!G3G "D"!3!F3F | "A"!2!EEDE "D"!3!F!1!DD2 ||
"D"!3!d!2!c!1!d!3!f !5!a2ag | !3!ffef !1!d!2!BB!1!A | !3!d!2!c!1!d!3!f !5!a2!2!f!4!a | "A"!5!b!3!g!1!e!4!a "D"!2!f!1!dd2 |
"D"!1!d!3!f!5!af "G"!4!g2ag | "D"!3!ffef !1!d!2!BB!1!A | !3!d!2!c!1!d!3!f "G"!4!g2ag | "A"!3!f2eg !3!fe!1!d!2!B||


